src/shared/assets/icons/infoPortal.svg

<svg width="22" height="24" viewBox="0 0 22 24" fill="none" xmlns="http://www.w3.org/2000/svg">
<path fill-rule="evenodd" clip-rule="evenodd" d="M20.7133 9.96615C20.427 9.56926 19.9681 9.33394 19.4793 9.33333H18.2529L18.2392 8.26013C18.2252 7.16563 17.3339 6.28571 16.2394 6.28571H10.4751C10.258 6.28571 10.0468 6.21507 9.87336 6.08444L7.6407 4.40254C7.2939 4.1413 6.8715 4 6.43731 4H2C0.895429 4 0 4.89543 0 6L0 18C0 19.1046 0.895431 20 2 20H16.5968C17.458 20 18.2224 19.4488 18.4944 18.6318L20.9223 11.339C21.0763 10.8743 20.9986 10.3637 20.7133 9.96615ZM6.25749 5.52381C6.47416 5.52381 6.68496 5.59418 6.85818 5.72432L9.22784 7.50474C9.49148 7.70195 9.81152 7.80883 10.1405 7.80952H15.7318C16.2841 7.80952 16.7318 8.25724 16.7318 8.80952V9.33333H4.35086C3.69595 9.33274 3.11436 9.75267 2.90782 10.3753L1.52108 14.543V6.52381C1.52108 5.97153 1.96879 5.52381 2.52108 5.52381H6.25749Z" fill="#D9D9D9"/>
</svg>

<svg xmlns="http://www.w3.org/2000/svg" width="22" height="24" fill="none"><path fill="#D9D9D9" fill-rule="evenodd" d="M20.713 9.966a1.524 1.524 0 0 0-1.234-.633h-1.226l-.014-1.073a2 2 0 0 0-2-1.974h-5.764a1 1 0 0 1-.602-.202L7.641 4.403A2 2 0 0 0 6.437 4H2a2 2 0 0 0-2 2v12a2 2 0 0 0 2 2h14.597a2 2 0 0 0 1.897-1.368l2.428-7.293a1.53 1.53 0 0 0-.209-1.373ZM6.257 5.524a1 1 0 0 1 .601.2l2.37 1.78c.263.198.584.305.912.306h5.592a1 1 0 0 1 1 1v.523H4.35a1.52 1.52 0 0 0-1.443 1.042L1.52 14.543v-8.02a1 1 0 0 1 1-1h3.736Z" clip-rule="evenodd"/></svg>
